!!!!SEGMENT: pl-cz--i-155--015_anonim--landler-8.krn
!!!cenid: 18xx:2524
!!!COM: Anonim
!!!COM-rismid: pe30004985
!!!CDT:
!!!CNT:
!!!OTL: Ländler 8
!!!PDT:
!!!AGN: Secular
!!!SMS-siglum: PL-CZ
!!!SMS-shelfmark: I-155
!!!SMS-shelfwork: 015 W
!!!SMS-variant:
!!!SMS-altvar:
!!!NIFC-rismid: 1001012544
!!!URL-scan: http://repozytorium.nifc.pl/skany/pl-cz-nut--i-155
!!!ONB-nifc: UWAGA: 10 krótkich Landler numerowanych na pięcioliniach
**kern	**kern	**kern	**kern	**kern
*part5	*part4	*part3	*part2	*part1
*staff5	*staff4	*staff3	*staff2	*staff1
*Icor	*Icor	*Ifagot	*Iclars	*Iclars
*I"Corno Secondo	*I"Corno Primo	*I"Fagotto	*I"Clarinetto 2do	*I"Clarinetto Primo
*I'cor 2	*I'cor 1	*I'fg	*I'cl 2	*I'cl 1
*clefG2	*clefG2	*clefF4	*clefG2	*clefG2
*ITrd4c7	*ITrd4c7	*	*ITrd1c2	*ITrd1c2
*k[b-]	*k[b-]	*k[b-]	*k[b-]	*k[b-]
*F:	*F:	*F:	*F:	*F:
*M3/4	*M3/4	*M3/4	*M3/4	*M3/4
*>[A,A,B,B]	*	*	*	*
!	!	!	!	!LO:TX:a:t=Ländler
!	!	!	!	!LO:TX:t=P:problem:all\right:global
!LO:TX:t=P:problem:brak partii w skanach	!LO:TX:t=P:problem:brak partii w skanach	!LO:TX:t=P:problem:brak partii w skanach	!LO:TX:a:t=8	!LO:TX:a:t=8
*>A	*	*	*	*
4ryy	4ryy	4ryy	8f/L	8a\L
.	.	.	8g/J	8b-\J
=1	=1	=1	=1	=1
*	*	*	*tremolo	*
2.ryy	2.ryy	2.ryy	8a/L	4.cc\
.	.	.	8f/	.
.	.	.	8a/	.
.	.	.	8f/	8a\
.	.	.	8a/	4ff\
.	.	.	8f/J	.
=2	=2	=2	=2	=2
2.ryy	2.ryy	2.ryy	8b-/L	4.dd\
.	.	.	8f/	.
.	.	.	8b-/	.
.	.	.	8f/	8b-\
.	.	.	8b-/	4gg\
.	.	.	8f/J	.
=3	=3	=3	=3	=3
*	*	*	*2\right	*
2.ryy	2.ryy	2.ryy	8b-\L	4.ee\
.	.	.	8cc\	.
.	.	.	8b-\	.
.	.	.	8cc\J	8gg\
*	*	*	*Xtremolo	*
.	.	.	8ee\L	4ccc\
.	.	.	8gg\J	.
=4	=4	=4	=4	=4
2.ryy	2.ryy	2.ryy	4ff\	8aa\L
.	.	.	.	8bb-\
.	.	.	8cc\L	8gg\
.	.	.	8b-\J	8aa\J
.	.	.	4a\	4ff\
=5	=5	=5	=5	=5
*	*	*	*tremolo	*
2.ryy	2.ryy	2.ryy	8a/L	4.cc\
.	.	.	8f/	.
.	.	.	8a/	.
.	.	.	8f/	8a\
.	.	.	8a/	4ff\
.	.	.	8f/J	.
=6	=6	=6	=6	=6
2.ryy	2.ryy	2.ryy	8b-/L	4.dd\
.	.	.	8f/	.
.	.	.	8b-/	.
.	.	.	8f/	8b-\
.	.	.	8b-/	4gg\
.	.	.	8f/J	.
*	*	*	*Xtremolo	*
=7	=7	=7	=7	=7
2.ryy	2.ryy	2.ryy	8cc\L	8ee\L
.	.	.	8ee\J	8gg\
.	.	.	4ee\	8ccc\
.	.	.	.	8bb-\
.	.	.	8cc\L	8aa\
.	.	.	8b-\J	8gg\J
!	!	!	!	!LO:LB:g=original
=8	=8	=8	=8	=8
*	*	*	*	*2\right
2ryy	2ryy	2ryy	2a\	2ff\
=:|!|:	=:|!|:	=:|!|:	=:|!|:	=:|!|:
*>B	*	*	*	*
4ryy	4ryy	4ryy	8ee\L	8gg\L
.	.	.	8cc\J	8ee\J
!	!	!	!LO:LB:g=original	!
=9	=9	=9	=9	=9
2.ryy	2.ryy	2.ryy	8g\L	8cc\L
.	.	.	8gg\J	8bb-\J
.	.	.	4ee\	4gg\
.	.	.	8cc\L	8ee\L
.	.	.	8b-\J	8cc\J
=10	=10	=10	=10	=10
2.ryy	2.ryy	2.ryy	8a\L	8cc\L
.	.	.	8aa\J	8ccc\J
.	.	.	4ff\	4aa\
.	.	.	8cc\L	8ff\L
.	.	.	8a\J	8cc\J
=11	=11	=11	=11	=11
2.ryy	2.ryy	2.ryy	8g\L	8cc\L
.	.	.	8gg\J	8bb-\J
.	.	.	4ee\	4gg\
.	.	.	8cc\L	8ee\L
.	.	.	8b-\J	8cc\J
=12	=12	=12	=12	=12
2.ryy	2.ryy	2.ryy	8a\L	8ff\L
.	.	.	8g\	8ee\
.	.	.	8a\	8ff\
.	.	.	8b-\	8gg\
.	.	.	8cc\	8aa\
.	.	.	8b-\J	8ff\J
=13	=13	=13	=13	=13
2.ryy	2.ryy	2.ryy	8g\L	8cc\L
.	.	.	8gg\J	8bb-\J
.	.	.	4ee\	4gg\
.	.	.	8cc\L	8ee\L
.	.	.	8a\J	8cc\J
=14	=14	=14	=14	=14
2.ryy	2.ryy	2.ryy	8a\L	8cc\L
.	.	.	8aa\J	8ccc\J
.	.	.	4ff\	4aa\
.	.	.	8cc\L	8ff\L
.	.	.	8a\J	8cc\J
=15	=15	=15	=15	=15
2.ryy	2.ryy	2.ryy	8g\L	8cc\L
.	.	.	8gg\J	8bb-\J
.	.	.	4ee\	4gg\
.	.	.	8cc\L	8ee\L
.	.	.	8b-\J	8gg\J
=16	=16	=16	=16	=16
2ryy	2ryy	2ryy	2a\	2ff\
==:|	==:|	==:|	==:|	==:|
*-	*-	*-	*-	*-
!!!system-decoration: [(s1,s2,s3,s4,s5)]
!!!AIN: 2 clars 2 cor 1 fagot
!!!ENC: Marcin Jachim
!!!END: 2021-06-16
!!!EED: Leszek Kubiak
!!!EST: 2021-06-22
